build/flags/Tunisia.svg

<svg xmlns="http://www.w3.org/2000/svg" fill="none" viewBox="0 0 28 28" focusable="false"><defs><filter id="Tunisia_svg__a"><feColorMatrix values="0 0 0 0 1 0 0 0 0 1 0 0 0 0 1 0 0 0 1 0"/></filter></defs><mask id="Tunisia_svg__b" width="28" height="20" x="0" y="4" maskUnits="userSpaceOnUse"><g filter="url(#Tunisia_svg__a)"><rect width="28" height="20" y="4" fill="#FFF" rx="3"/><rect width="28" height="20" y="4" stroke="#969696" stroke-opacity="0" stroke-width="0" rx="3"/></g></mask><path fill="none" d="M0 0H28V28H0z"/><rect width="28" height="20" y="4" fill="#FFF" rx="3"/><rect width="28" height="20" y="4" rx="3"/><g mask="url(#Tunisia_svg__b)"><path fill="#E92434" d="M0 4H28V24H0z"/><path d="M0 4H28V24H0z"/><path fill="#FFF" fill-rule="evenodd" d="M14 20C17.3137 20 20 17.3137 20 14C20 10.6863 17.3137 8 14 8C10.6863 8 8 10.6863 8 14C8 17.3137 10.6863 20 14 20ZM15.8111 18.3022C13.6641 18.0443 12 16.2165 12 14C12 11.7835 13.6641 9.95568 15.8111 9.69781C15.2543 9.46309 14.6423 9.33333 14 9.33333C11.4227 9.33333 9.33333 11.4227 9.33333 14C9.33333 16.5773 11.4227 18.6667 14 18.6667C14.6423 18.6667 15.2543 18.5369 15.8111 18.3022ZM15.1294 16.6551L16.3542 15.1701L18.1574 15.8437L17.1236 14.22L18.3215 12.7132L16.4577 13.1946L15.3948 11.5897L15.2768 13.511L13.422 14.026L15.2128 14.732L15.1294 16.6551Z"/><path d="M14 20C17.3137 20 20 17.3137 20 14C20 10.6863 17.3137 8 14 8C10.6863 8 8 10.6863 8 14C8 17.3137 10.6863 20 14 20ZM15.8111 18.3022C13.6641 18.0443 12 16.2165 12 14C12 11.7835 13.6641 9.95568 15.8111 9.69781C15.2543 9.46309 14.6423 9.33333 14 9.33333C11.4227 9.33333 9.33333 11.4227 9.33333 14C9.33333 16.5773 11.4227 18.6667 14 18.6667C14.6423 18.6667 15.2543 18.5369 15.8111 18.3022ZM15.1294 16.6551L16.3542 15.1701L18.1574 15.8437L17.1236 14.22L18.3215 12.7132L16.4577 13.1946L15.3948 11.5897L15.2768 13.511L13.422 14.026L15.2128 14.732L15.1294 16.6551Z"/></g></svg>

<svg xmlns="http://www.w3.org/2000/svg" fill="none" viewBox="0 0 28 28" focusable="false"><path fill="none" d="M0 0h28v28H0z"/><rect width="28" height="20" y="4" fill="#FFF" rx="3"/><rect width="28" height="20" y="4" rx="3"/><mask id="Tunisia_svg__a" width="28" height="20" x="0" y="4" mask-type="alpha" maskUnits="userSpaceOnUse"><rect width="28" height="20" y="4" fill="#FFF" rx="3"/><rect width="28" height="20" y="4" stroke="#979797" stroke-opacity="0" stroke-width="0" rx="3"/></mask><g mask="url(#Tunisia_svg__a)"><path fill="#E92434" d="M0 4h28v20H0z"/><path d="M0 4h28v20H0z"/></g><g mask="url(#Tunisia_svg__a)"><mask id="Tunisia_svg__b" fill="#fff"><path fill-rule="evenodd" d="M20 14a6 6 0 1 1-12 0 6 6 0 0 1 12 0m-4.189 4.302a4.667 4.667 0 1 1 0-8.604 4.334 4.334 0 0 0 0 8.604m-.682-1.647 1.225-1.485 1.803.674-1.033-1.624 1.198-1.507-1.864.482-1.063-1.605-.118 1.921-1.855.515 1.79.706z" clip-rule="evenodd"/></mask><path fill="#FFF" fill-rule="evenodd" d="M20 14a6 6 0 1 1-12 0 6 6 0 0 1 12 0m-4.189 4.302a4.667 4.667 0 1 1 0-8.604 4.334 4.334 0 0 0 0 8.604m-.682-1.647 1.225-1.485 1.803.674-1.033-1.624 1.198-1.507-1.864.482-1.063-1.605-.118 1.921-1.855.515 1.79.706z" clip-rule="evenodd" mask="url(#Tunisia_svg__b)"/></g></svg>
